symbols/web/4mp/materialsymbolsoutlined/4mp_wght500grad200_48px.svg

<svg xmlns="http://www.w3.org/2000/svg" height="48" width="48"><path d="M23.9 22.7h2.5v-3.2h1.4v-2.45h-1.4v-6.4h-2.5v6.4h-3.8v-6.4h-2.5v8.9h6.3ZM11.55 37.4h2.5v-9.45h2.7v6.3h2.5v-6.3h3.05v9.45h2.5v-9.95q0-.7-.65-1.375T22.8 25.4h-9.2q-.7 0-1.375.675T11.55 27.4Zm16.3 0h2.5v-3.2h4q.7 0 1.375-.625T36.4 32.2v-4.75q0-.7-.675-1.375T34.35 25.4h-6.5Zm2.5-5.7v-3.75h3.55v3.75ZM9.1 42.75q-1.55 0-2.7-1.15-1.15-1.15-1.15-2.7V9.1q0-1.55 1.15-2.7 1.15-1.15 2.7-1.15h29.8q1.55 0 2.7 1.15 1.15 1.15 1.15 2.7v29.8q0 1.55-1.15 2.7-1.15 1.15-2.7 1.15Zm0-3.85h29.8V9.1H9.1v29.8Zm0-29.8v29.8V9.1Z"/></svg>

<svg xmlns="http://www.w3.org/2000/svg" height="48" width="48"><path d="M23.9 22.7H26.4V19.5H27.8V17.05H26.4V10.65H23.9V17.05H20.1V10.65H17.6V19.55H23.9ZM9.1 42.75Q7.55 42.75 6.4 41.6Q5.25 40.45 5.25 38.9V9.1Q5.25 7.55 6.4 6.4Q7.55 5.25 9.1 5.25H38.9Q40.45 5.25 41.6 6.4Q42.75 7.55 42.75 9.1V38.9Q42.75 40.45 41.6 41.6Q40.45 42.75 38.9 42.75ZM9.1 38.9H38.9Q38.9 38.9 38.9 38.9Q38.9 38.9 38.9 38.9V9.1Q38.9 9.1 38.9 9.1Q38.9 9.1 38.9 9.1H9.1Q9.1 9.1 9.1 9.1Q9.1 9.1 9.1 9.1V38.9Q9.1 38.9 9.1 38.9Q9.1 38.9 9.1 38.9ZM9.1 9.1Q9.1 9.1 9.1 9.1Q9.1 9.1 9.1 9.1V38.9Q9.1 38.9 9.1 38.9Q9.1 38.9 9.1 38.9Q9.1 38.9 9.1 38.9Q9.1 38.9 9.1 38.9V9.1Q9.1 9.1 9.1 9.1Q9.1 9.1 9.1 9.1ZM13.6 25.4Q12.9 25.4 12.225 26.075Q11.55 26.75 11.55 27.4V37.4H14.05V27.95H16.75V34.25H19.25V27.95H22.3V37.4H24.8V27.45Q24.8 26.75 24.15 26.075Q23.5 25.4 22.8 25.4ZM27.85 25.4V37.4H30.35V34.2H34.35Q35.05 34.2 35.725 33.575Q36.4 32.95 36.4 32.2V27.45Q36.4 26.75 35.725 26.075Q35.05 25.4 34.35 25.4ZM30.35 27.95H33.9V31.7H30.35Z"/></svg>
